**kern	**text
*clefF4	*
*k[b-e-]	*
*M4/4	*
*MM190	*
=1	=1
1r	.
=2	=2
1r	.
=3	=3
1r	.
=4	=4
1r	.
=5	=5
1r	.
=6	=6
1r	.
=7	=7
1r	.
=8	=8
1r	.
=9	=9
1r	.
=10	=10
1r	.
=11	=11
1r	.
=12	=12
1r	.
=13	=13
1r	.
=14	=14
1r	.
=15	=15
1r	.
=16	=16
1r	.
=17	=17
1r	.
=18	=18
1r	.
=19	=19
[8AL	な
32AKL]	.
16.AJJ	ん
8B-L	も
[8AJ	な
16ALL]	.
16AJ	い
8B-J	す
8B-L	な
8B-J	ば
=20	=20
8B-L	と
8B-	び
8B-	か
8B-J	う
16B-LL	ら
16B-	い
16A-X	め
16A-JJ	い
4r	.
=21	=21
4A	しょ
8B-L	も
[8AJ	な
16ALL]	.
16B-J	い
8B-J	お
8B-L	と
8B-J	で
=22	=22
8B-L	か
8d-X	す
8c	れ
8A-XJ	た
16B-LL	せ
16B-	い
16A-	め
16A-JJ	い
4r	.
*clefG2	*
=23	=23
8.B-L	こ
16B-Jk	ん
8d-XL	ご
8cJ	せ
8cL	ん
8e-	ね
8d-	ん
8d-J	く
=24	=24
4f	さ
8e-L	も
8d-XJ	は
8cL	え
*clefF4	*
8A-X	な
8A-	い
8A-J	す
=25	=25
8AL	な
8B-	あ
8A-X	の
[8FJ	わ
16FLL]	.
16FJJ	く
4A-	せ
[8B-	さ
=26	=26
4B-]	.
4r	.
2r	.
=27	=27
[8AL	こ
32AKL]	.
16.AJJ	ん
16.B-LL	な
32B-JK	ぐ
[8AJ	あ
16ALL]	.
16B-J	い
8B-J	で
8B-L	ま
8B-J	だ
=28	=28
8B-L	す
8B-	り
8B-	へ
8B-J	る
16B-LL	う
16B-	ん
16A-X	め
16A-JJ	い
8r	.
8An	ど
=29	=29
8AL	こ
8B-J	え
16B-LL	も
16B-J	い
[8AJ	け
16ALL]	.
16B-J	え
8B-J	な
8B-L	く
8B-J	て
=30	=30
8B-L	つ
8d-X	い
8c	ら
8A-XJ	く
16B-LL	え
16B-	い
16A-	せ
16A-JJ	い
8r	.
8A-	た
=31	=31
8.B-L	ち
16B-Jk	い
*clefG2	*
8d-XL	り
8cJ	き
8cL	ん
8e-	し
8d-	の
8d-J	ふ
=32	=32
4f	だ
8e-L	で
8d-XJ	み
8c	ち
*clefF4	*
4A-X	た
8A-	す
=33	=33
8B-L	な
8B-	あ
8A-X	の
[8FJ	わ
16FLL]	.
16FJJ	く
4A-	せ
[8B-	さ
=34	=34
4B-]	.
4r	.
8r	.
8FL	の
8A-X	ら
8A-J	り
=35	=35
8B-L	い
8B-	く
8d-X	ら
8cJ	り
8r	.
8A-XL	あ
8A-	る
8BnJ	き
*clefG2	*
=36	=36
8cL	い
8c	ま
8e-	わ
8d-XJ	り
8r	.
8d-L	た
8e-	ど
[8fJ	り
=37	=37
8fL]	.
8e-	つ
8d-X	い
[8cJ	た
8cL]	.
*clefF4	*
8B-	い
8A-X	の
[8B-J	り
=38	=38
2B-]	.
8r	.
8FL	き
8A-X	み
[8B-J	が
=39	=39
8B-L]	.
8B-	い
*clefG2	*
8d-X	ま
8cJ	も
8r	.
8A-XL	い
8A-	き
[8cJ	て
=40	=40
8cL]	.
8c	る
8e-	な
8d-XJ	ら
8r	.
8d-L	こ
8e-	た
[8e-J	え
=41	=41
8e-L]	.
8e-	て
8e-	く
[8f#XJ	れ
8f#L]	.
8fn	ぼ
8e-	く
[8dJ	に
=42	=42
2d]	.
4r	.
8r	.
16r	.
16d	い
=43	=43
4g	え
8gL	い
8cJ	きょ
8cL	お
8c	の
8g	ひ
8gJ	わ
=44	=44
16fLL	さ
16fJ	ん
[8e-J	ご
16.e-LL]	.
32e-K	ず
16d	だ
16dJJ	う
8d'L	ん
8c	つ
8d	ま
[8e-J	り
=45	=45
8e-L]	.
8f	も
8g	と
8gJ	ど
8a-XL	お
8g	り
8f	ま
8gJ	で
=46	=46
16.fLL	ば
[32fK	い
16f]	.
16fJJ	ば
8e-L	い
8e-J	ば
[8gL	あ
32gKL]	.
16.gJJ	い
8r	.
8c	お
=47	=47
4g	も
8gL	い
8cJ	つ
8cL	い
8c	た
8g	ら
8gJ	あ
=48	=48
10fL	る
10f	い
10.e-	て
20e-K	い
[10dJ	け
8dL]	.
8c	こ
8d	こ
[8e-J	ろ
=49	=49
8e-L]	.
8d	の
*clefF4	*
8B-	こ
[8GJ	り
16G]	.
16r	.
8B-	の
8B-L	こ
*clefG2	*
8gJ	さ
=50	=50
*^	*
16r	6f'	.
8.f'	.	い
.	3e-	よ
8r	.	.
[8e-	.	に
4e-]	4r	.
4r	8r	.
.	16r	.
.	16d	い
*v	*v	*
=51	=51
4g	え
8gL	い
8cJ	く
8cL	う
8c	を
8g	き
8gJ	る
=52	=52
*^	*
6f'	16r	さ
.	16fKL	ん
.	[8e-J	だ
6r	.	.
.	16e-KL]	.
.	8.e-'J	す
[6d	.	と
8dL]	32r	.
.	16.d'	む
8c	8r	め
8d	4r	い
[8e-J	.	ど
*v	*v	*
=53	=53
8e-L]	.
8f	ひ
8g	び
8gJ	か
8a-XL	あ
8g	せ
8f	て
8gJ	わ
=54	=54
16fLL	ば
[16f	い
32fK]	.
16.fJJ	ば
8e-L	い
8e-J	ば
[8gL	あ
32gKL]	.
16.gJJ	い
4r	.
=55	=55
4r	.
8.gL	も
16gJk	す
8fL	こ
8e-	し
8d	だ
8cJ	け
=56	=56
8r	.
8dL	と
8e-	も
8e-J	だ
8fL	あ
8e-	ち
8d	で
8cJ	い
=57	=57
4d	よ
8B-L	ぜ
8e-J	こ
8e-L	ん
8B-	か
8B-	い
[8cJ	わ
=58	=58
4c]	.
4r	.
2r	.
=59	=59
1r	.
=60	=60
1r	.
=61	=61
1r	.
=62	=62
1r	.
=63	=63
1r	.
=64	=64
1r	.
=65	=65
1r	.
=66	=66
1r	.
*clefF4	*
=67	=67
[8AL	そ
32AKL]	.
16.AJJ	い
8B-L	や
8AJ	きょ
8B-L	お
8B-	わ
8B-	ぼ
8B-J	く
=68	=68
8B-L	ら
8B-	の
8B-'	は
8B-J	ぴ
16.B-LL	ば
32B-K	す
16A-X	で
16A-JJ	い
8r	.
8A-	お
=69	=69
8.AL	も
16AJk	い
8B-L	お
[8AJ	も
16ALL]	.
16AJ	い
8B-J	の
8B-L	か
8B-J	ざ
=70	=70
8B-L	り
8d-X	つ
8c	け
8A-XJ	し
16B-LL	よ
16B-	う
16A-	ぜ
16A-JJ	い
8r	.
8A-	あ
=71	=71
4B-'	ま
*clefG2	*
8d-XL	た
8cJ	る
8cL	い
8e-	だ
8d-	け
8d-J	の
=72	=72
4f	け
8e-L	き
8d-XJ	か
16cLL	こ
*clefF4	*
16BnJJ	ん
4A-X	で
8An	う
=73	=73
4B-	た
16A-XLL	を
16A-J	う
[8FJ	た
8FL]	.
8A-	お
8A-	う
[8B-J	ぜ
=74	=74
4B-]	.
4r	.
4r	.
8r	.
8A-X	う
=75	=75
4A	ぞ
8B-L	む
8AJ	ぞ
8B-L	お
8B-	の
8B-	は
8B-J	か
=76	=76
8B-L	の
8B-	ま
8B-	え
8B-J	で
16B-LL	け
16B-	い
16A-X	れ
16A-JJ	い
8r	.
8A-	そ
=77	=77
8.AL	め
16AJk	る
8B-L	と
8AJ	しょ
8r	.
8B-L	く
8B-	に
8B-J	て
=78	=78
8B-L	う
8d-X	ま
8c	れ
8A-XJ	た
16B-LL	せ
16B-	い
16A-	め
16A-JJ	い
8r	.
8A-	こ
=79	=79
8.B-L	の
16B-Jk	い
*clefG2	*
8d-XL	ど
[8cJ	が
8cL]	.
8e-	か
8d-	れ
8d-J	る
=80	=80
8.fL	ま
16fJk	え
8e-L	に
8d-XJ	は
8c	や
*clefF4	*
4A-X	く
8A-	こ
=81	=81
8B-L	こ
8B-	を
8A-X	で
[8FJ	て
16FLL]	.
16FJJ	い
4A-	こ
[8B-	ぜ
=82	=82
4B-]	.
4r	.
8r	.
8A-XL	ね
8A-	ね
8A-J	ね
=83	=83
*^	*
8B-L	2r	あ
8d-X	.	な
8c	.	た
8B-J	.	と
4A-X'	8r	わ
.	4.B-'	た
16r	.	.
32r	.	.
32BnKKL	.	し
8B-XJ	.	で
*v	*v	*
*clefG2	*
=84	=84
8.d-XL	ら
16d-Jk	ん
8cL	で
[8A-XJ	ぶ
8A-L]	.
*clefF4	*
8B-	す
8B-	で
8B-J	に
=85	=85
8B-L	す
8d-X	た
8c	れ
8B-J	た
8A-XL	さ
[8B-J	ば
16B-LL]	.
16B-J	く
*clefG2	*
8fJ	で
=86	=86
8.e-L	な
16e-Jk	に
8d-XL	お
[8e-J	も
16e-LL]	.
16e-J	う
8e-J	い
8e-L	ま
8e-J	だ
=87	=87
8e-'L	ぱ
8e-'	ぱ
8e-'	ぱ
8fJ	と
8e-L	と
8d-X	び
8d-	だ
8d-J	せ
=88	=88
16.e-LL	ま
[32e-K	い
16e-]	.
[16d-XJJ	ひ
8d-L]	.
*clefF4	*
[8B-J	ろ
8B-L]	.
8B-	ど
8B-	お
8B-J	か
=89	=89
8B-L	ま
8B-J	よ
16B-LL	え
16B-J	る
8d-XJ	わ
8cL	れ
8B-	ら
8A-X	を
8A-J	す
=90	=90
8B-L	く
16B-L	い
[16A-XJJ	た
8A-L]	.
8F#XJ	ま
4Fn	え
8r	.
8F#X'	ぶ
=91	=91
16B-LL	と
16B-	ん
16A-X	で
[16B-JJ	こ
16B-LL]	.
16A-J	ぜ
8B-'J	も
4A-	と
16A-LL	え
16A-	い
16A-	え
16A-JJ	い
=92	=92
8B-L	お
16A-XL	で
[16B-JJ	よ
16B-LL]	.
16A-	い
16B-	ど
16B-JJ	ん
4A-	と
8A-L	あ
8A-J	の
=93	=93
16.B-LL	だ
32B-K	ん
16A-X	す
[16B-JJ	ほ
16B-LL]	.
16A-	る
16.A-	も
[32B-JJk	ざ
16B-LL]	.
16B-	い
48A-L	く
[48B-JJ	ろ
12B-J_	.
8B-L]	.
8A-J	る
=94	=94
16B-LL	た
16B-	い
16A-X	こ
16B-JJ	た
16B-LL	い
16A-J	の
8B-J	お
[8A-L	ぱ
32A-KL]	.
16.A-'JJ	つ
8A-L	こ
16A-L	せ
16A-JJ	ん
=95	=95
8B-L	じゅ
16A-XL	で
16B-JJ	ば
16B-LL	ん
16A-	ば
16B-	ば
16B-JJ	ん
8A-L	ば
8A-'J	ん
8A-L	しょ
16A-L	ね
16A-JJ	ん
=96	=96
8B-L	しょ
16A-XL	じょ
32B-L	う
32B-JJJ	た
16B-LL	う
16A-J	き
8B-J	ぼ
8A-L	ろ
8A-'J	ん
8A-L	きょ
16A-L	て
16A-JJ	ん
=97	=97
*^	*
4r	8B-L	.
.	16A-XL	ち
.	16B-JJ	そ
8r	16B-LL	.
.	16B-J	で
16r	8A-'J	.
[16B-	.	こ
32B-]	24r	.
32r	.	.
.	24B-KL	ん
16r	.	.
.	12A-	み
8r	.	.
.	[12B-J	ぞ
32r	8B-L]	.
16.B-	.	の
8r	8A-J	.
*v	*v	*
*clefG2	*
=98	=98
8.fL	も
16fJk	い
8e-L	で
8d-XJ	わ
4A-X	で
*clefF4	*
8A-L	ん
8d-J	し
=99	=99
16cKL	お
[8.B-J	お
16B-KL]	.
8.B-'J	ん
2r	.
=100	=100
2r	.
8r	.
8FL	と
8A-X	ま
[8B-J	ど
=101	=101
16B-LL]	.
16B-J	い
8B-J	う
8d-XL	ね
8cJ	り
8r	.
8A-XL	い
8A-	か
8BnJ	り
*clefG2	*
=102	=102
8cL	い
8c	く
8e-	る
8d-XJ	い
8r	.
8d-L	た
8e-	ど
[8fJ	り
=103	=103
8fL]	.
8e-	つ
8d-X	い
[8cJ	た
8cL]	.
*clefF4	*
8B-	い
8A-X	の
[8B-J	り
=104	=104
2B-]	.
8r	.
8FL	き
8A-X	み
[8B-J	の
=105	=105
8B-L]	.
8B-	こ
*clefG2	*
8d-X	こ
8cJ	ろ
8r	.
8A-XL	し
8A-	な
8cJ	ず
=106	=106
8cL	い
8c	る
8e-	な
8d-XJ	ら
8r	.
8d-L	お
8e-	う
[8e-J	と
=107	=107
8e-L]	.
8e-	せ
8e-	よ
[8f#XJ	そ
8f#L]	.
8fn	きゅ
8e-	う
[8dJ	に
=108	=108
2d]	.
4r	.
8r	.
16r	.
16d	い
=109	=109
4g	え
8gL	い
8cJ	き
8r	.
8cL	と
8g	ま
8gJ	だ
=110	=110
8fL	ぼ
16fL	い
16fJJ	ず
16e-LL	ど
16e-	ん
16d	く
16dJJ	ら
8d'L	い
8c	つ
8d	ま
[8e-J	り
=111	=111
8e-L]	.
8f	な
8g	か
8gJ	な
8a-XL	お
8g	り
8f	ま
8gJ	で
=112	=112
16.fLL	ば
[32fK	い
16f]	.
16fJJ	ば
8e-L	い
8e-J	ば
[8gL	あ
32gKL]	.
16.gJJ	い
8r	.
8c	お
=113	=113
4g	も
8gL	い
[8cJ	だ
16cLL]	.
16cJ	し
8cJ	た
8gL	ら
8gJ	お
=114	=114
14.fLL	し
14.fJ	え
7e-	て
28e-KL	く
[14.dJJ	れ
8dL]	.
8c	あ
8d	の
8e-J	こ
=115	=115
8e-L	ん
8d	と
*clefF4	*
8B-	ん
[8GJ	の
16G]	.
16r	.
8B-	ゆ
8B-L	め
*clefG2	*
8gJ	み
=116	=116
16fLL	た
[16f	い
32fK]	.
16.e-JJ	な
8e-L	う
[8e-J	た
4e-]	.
8r	.
16r	.
16d	い
=117	=117
4g	え
8gL	い
8cJ	ちゅ
8cL	う
8c	を
8g	ま
8gJ	う
=118	=118
8.fL	れ
[16e-Jk	ざ
8e-L]	.
[8dJ	び
16dLL]	.
16d'J	む
8cJ	え
8dL	ん
[8e-J	ぽ
=119	=119
8e-L]	.
8f	さ
8g	し
[8a-XJ	し
8a-L]	.
8g	め
8f	せ
8gJ	ば
=120	=120
16fLL	ば
[16f	い
32fK]	.
16.fJJ	ば
8e-L	い
8e-J	ば
[8gL	あ
32gKL]	.
16.gJJ	い
4r	.
=121	=121
4r	.
8gL	て
8gJ	ん
8fL	く
8e-	う
8d	の
[8cJ	し
=122	=122
8cL]	.
8c	ろ
8d	ま
8e-J	で
8fL	ぼ
8e-	く
8d	ら
8cJ	を
=123	=123
4B-	み
8cL	ち
[8e-J	び
8e-L]	.
*clefF4	*
[8B-J	て
16B-LL]	.
16B-J	く
[8cJ	れ
=124	=124
4c]	.
4r	.
4r	.
8r	.
8A-X	う
=125	=125
4B-'	た
8B-L	て
*clefG2	*
8fJ	お
8e-L	ど
8e-	ろ
8d-X	お
8e-J	は
=126	=126
8r	.
8d-X	ぴ
8.fL	ば
16fJk	す
8.d-L	で
16d-Jk	い
8r	.
8c	さ
=127	=127
4d-X	ば
8cL	く
8B-J	に
8cL	り
8c	ん
*clefF4	*
8B-	ご
8A-XJ	の
=128	=128
4B-	き
8A-XL	お
8F#XJ	う
4Fn	え
4A-	よ
=129	=129
8B-L	で
8B-	ん
8B-	ぐ
*clefG2	*
8fJ	り
8e-L	が
8e-	え
8d-X	り
8e-J	そ
=130	=130
8e-L	ん
8d-X	じゃ
8f	ば
8fJ	い
[8d-L	ば
32d-KL]	.
16.d-JJ	い
8r	.
8c	あ
=131	=131
4d-X	と
8cL	わ
8d-J	だ
4e-	れ
8fL	か
8f#XJ	が
=132	=132
4f'	か
8d-XL	て
8d-J	に
8.e-L	ど
16d-Jk	お
8A-XL	ぞ
8A-J	う
=133	=133
4B-'	た
8B-L	て
8fJ	お
8e-L	ど
8e-	ろ
8d-X	お
8e-J	は
=134	=134
8r	.
8d-X	ぴ
8.fL	ば
16fJk	す
8.d-L	で
16d-Jk	い
8r	.
8c	さ
=135	=135
4d-X	ば
8cL	く
8B-J	に
8cL	り
8c	ん
*clefF4	*
8B-	ご
8A-XJ	の
=136	=136
4B-	き
8A-XL	お
8F#XJ	う
4Fn	え
4A-	よ
=137	=137
8B-L	で
8B-	ん
8B-	ぐ
*clefG2	*
8fJ	り
8e-L	が
8e-	え
8d-X	り
8e-J	そ
=138	=138
8e-L	ん
8d-X	じゃ
8f	ば
8fJ	い
[8d-L	ば
32d-KL]	.
16.d-JJ	い
8r	.
8c	あ
=139	=139
4d-X	と
8cL	わ
8d-J	だ
4e-	れ
8fL	か
8f#XJ	が
=140	=140
4f'	か
8d-XL	て
8d-J	に
4e-	ど
4d-	ぞ
=141	=141
1r	.
=142	=142
1r	.
=143	=143
1r	.
=144	=144
1r	.
=145	=145
1r	.
=146	=146
1r	.
=147	=147
1r	.
=148	=148
1r	.
=149	=149
1r	.
=150	=150
1r	.
=151	=151
1r	.
=152	=152
1r	.
=153	=153
1r	.
=154	=154
1r	.
=155	=155
1r	.
=156	=156
1r	.
=157	=157
1r	.
=158	=158
1r	.
=159	=159
1r	.
=160	=160
2r	.
4r	.
8r	.
16r	.
16d	い
=161	=161
4g	え
8gL	い
8cJ	きょ
8cL	お
8c	の
8g	ひ
8gJ	わ
=162	=162
16fLL	さ
16fJ	ん
[8e-J	ご
16.e-LL]	.
32e-K	ず
16d	だ
16dJJ	う
8d'L	ん
8c	つ
8d	ま
[8e-J	り
=163	=163
8e-L]	.
8f	も
8g	と
8gJ	ど
8a-XL	お
8g	り
8f	ま
8gJ	で
=164	=164
16.fLL	ば
[32fK	い
16f]	.
16fJJ	ば
8e-L	い
8e-J	ば
[8gL	あ
32gKL]	.
16.gJJ	い
8r	.
8c	お
=165	=165
4g	も
8gL	い
8cJ	つ
8cL	い
8c	た
8g	ら
8gJ	あ
=166	=166
10fL	る
10f	い
10.e-	て
20e-K	い
[10dJ	け
8dL]	.
8c	こ
8d	こ
[8e-J	ろ
=167	=167
8e-L]	.
8d	の
*clefF4	*
8B-	こ
[8GJ	り
16G]	.
16r	.
8B-	の
8B-L	こ
*clefG2	*
8gJ	さ
=168	=168
*^	*
16r	6f'	.
8.f'	.	い
.	3e-	よ
8r	.	.
[8e-	.	に
4e-]	4r	.
4r	8r	.
.	16r	.
.	16d	い
*v	*v	*
=169	=169
4g	え
8gL	い
8cJ	く
8cL	う
8c	を
8g	き
8gJ	る
=170	=170
*^	*
6f'	16r	さ
.	16fKL	ん
.	[8e-J	だ
6r	.	.
.	16e-KL]	.
.	8.e-'J	す
[6d	.	と
8dL]	32r	.
.	16.d'	む
8c	8r	め
8d	4r	い
[8e-J	.	ど
*v	*v	*
=171	=171
8e-L]	.
8f	ひ
8g	び
8gJ	か
8a-XL	あ
8g	せ
8f	て
8gJ	わ
=172	=172
16fLL	ば
[16f	い
32fK]	.
16.fJJ	ば
8e-L	い
8e-J	ば
[8gL	あ
32gKL]	.
16.gJJ	い
4r	.
=173	=173
4r	.
8.gL	も
16gJk	す
8fL	こ
8e-	し
8d	だ
8cJ	け
=174	=174
8r	.
8dL	と
8e-	も
8e-J	だ
8fL	あ
8e-	ち
8d	で
8cJ	い
=175	=175
4d	よ
8B-L	ぜ
8e-J	こ
8e-L	ん
8B-	か
8B-	い
[8cJ	わ
=176	=176
4c]	.
4r	.
8r	.
8cL	か
8d	ぜ
8e-J	が
=177	=177
4r	.
4g	ふ
8fL	き
8e-	さ
8d	ら
8cJ	し
=178	=178
8r	.
8dL	な
8e-	お
[8fJ	す
8fL]	.
8g	す
8f	む
8cJ	す
=179	=179
8cL	な
*clefF4	*
8B-	あ
8B-	の
[8GJ	わ
16GLL]	.
16GJ	く
[8B-J	せ
32B-KLL]	.
16.B-J	い
*clefG2	*
[8cJ	さ
=180	=180
4c]	.
4r	.
2r	.
==	==
*-	*-
